postcss-ant-logo.svg

<svg width="590" height="736" viewBox="0 0 590 736" xmlns="http://www.w3.org/2000/svg"><title>Artboard</title><g fill="none" fill-rule="evenodd"><ellipse fill="#CCC" cx="135" cy="460.7" rx="90.8" ry="12.5"/><path d="M81.3 285.7s-12.2 55.2-13.7 79.8c-1.5 24.7-2.2 50.7-2.2 54.8 0 4.1-1.7 14.5 6.2 15.3 3 .3 5.4.1 7.7-.1 3.8-.3 7.4-.6 13.1 1.2 4.9 1.6 11.1.9 17.6.2 5.8-.6 11.9-1.2 17.4-.2 11.7 2.2 19.2 2.3 34.2 1 15-1.3 14.3-3.8 34.3-2.6 20 1.2 21-.3 19.8-8.5-1.2-8.2-17.8-128.2-40-146.5-22.1-18.3-94.4 5.6-94.4 5.6" fill="#E33B3B"/><path d="M180 426.3c-4.4.2-9 1.5-12.6 2.8v8c7.4-1 10.3-2.3 19.4-2.3 2.5 0 5.4.1 9 .3 3.8.2 7 .3 9.5.3 8.6 0 10.6-1.4 10.6-5.3 0-.7-.1-1.4-.2-2.2-4.1.4-8.9.6-13.4.6-6.7 0-13-.5-16.7-1.6-.5-.1-1-.3-1.4-.4-.2 1.3-.7 2.3-1.8 2.5-.1 0-.3.1-.4.1-.9.1-1.6-1.1-2-2.8M112 391c-1.2 10-3.1 31-1.4 46 3.4-.4 6.8-.7 10.2-.7 2.3 0 4.5.2 6.6.5 6.7 1.3 12.1 1.8 18.3 1.8 3.3 0 6.9-.2 11-.5 1.9-14.2.2-34.3-1-45.2-5.7 4.6-12.9 7.4-20.8 7.4-8.9 0-17-3.5-22.9-9.3m-42.8-20.3s-.8.5-2 1.2v.9c1.2-1.2 2-2.1 2-2.1m-1.1-11.5c-.1 1.3-.2 2.5-.3 3.6.3-.1.5-.1.5-.1s-.1-1.2-.2-3.5m19.7-49.9c-5.5 9.7-12.8 27.8-10.5 53.5h1.8c3.6 0 11.5.4 10.7 4.4-.6 3-4.4 3.7-7.3 3.7-2 0-3.7-.3-3.7-.3s4.8 22.5-1.6 22.5h-.3c-6.8-.8-3.1-20.5-3.1-20.5s-2.7 10-7.2 12.3c-.8 17.5-1.2 32.5-1.2 35.5 0 1.2-.1 3-.1 5 0 4.5.8 9.8 6.3 10.4 1.2.1 2.2.2 3.2.2 1.6 0 3-.1 4.5-.2 1.4-.1 2.8-.2 4.3-.2 2.5 0 5.2.3 8.8 1.5 2.2.7 4.7 1 7.3 1h.3c-.1-14.1.3-41.7 4.9-56.8-.8-1.8-1.5-3.6-1.9-5.5-3.9 4.2-12.4 15.6-13.4 35 0 0 8.4.7 7.4 3.8-.5 1.4-1.9 1.8-3.4 1.8-1.8 0-3.7-.6-3.7-.6s1 13.8-2.7 13.8c-.1 0-.3 0-.4-.1-4.2-1-.2-13-.2-13s-3 7.2-6.4 7.2c-.4 0-.8-.1-1.2-.3-3.8-2.1 4.9-8.3 4.9-8.3s-4.2 1.9-6.6 1.9c-1.2 0-2.1-.5-1.7-2 1.1-4.4 8.4-5 8.4-5s2.5-34 18-40.3c0-.7-.1-1.4-.1-2 0-5 1.1-9.7 3.1-13.9-10.5-8-17.3-20.4-17.3-34.2 0 0-.1-1.7-.1-4.4 0-1.9.1-3.8.2-5.9m-9.5-9.5c-.5 2.5-1.1 5.4-1.7 8.3 1.1-2.2 2.4-4.3 3.8-6.2l-2.1-2.1" fill="#DA2B2B"/><path d="M93.5 301s-19.7 21.5-16.3 61.8c0 0 13.5-.8 12.5 4.4-1 5.1-11 3.4-11 3.4s4.9 23.3-1.9 22.5c-6.8-.8-3.1-20.5-3.1-20.5s-4 15-10.5 12.5 6-14.3 6-14.3-14 9-13.2 1.7c.8-7.2 12.2-9.7 12.2-9.7s-3.7-60 23.5-69.5l1.8 7.7m79.5 0s19.8 21.5 16.3 61.8c0 0-13.5-.8-12.5 4.4 1 5.1 11 3.4 11 3.4s-4.9 23.3 1.9 22.5c6.8-.8 3.1-20.5 3.1-20.5s4 15 10.5 12.5-6-14.3-6-14.3 14 9 13.3 1.7c-.8-7.2-12.3-9.7-12.3-9.7s3.8-60-23.5-69.5L173 301m-8.4 72.6s14 11.7 15.2 36.9c0 0-8.4.7-7.4 3.8 1 3.1 7.1 1.2 7.1 1.2s-1.1 14.8 3.1 13.8.2-13 .2-13 3.7 9 7.5 6.9c3.8-2.1-4.9-8.3-4.9-8.3s9.4 4.4 8.4 0c-1.1-4.4-8.4-5-8.4-5s-2.7-37.5-20.4-41.1l-.4 4.8m-60.2-4.9C86.7 372.3 84 409.8 84 409.8s-7.3.6-8.4 5c-1.1 4.4 8.4 0 8.4 0s-8.7 6.2-4.9 8.3c3.8 2.1 7.5-6.9 7.5-6.9s-4 11.9.2 13c4.2 1.1 3.1-13.8 3.1-13.8s6 1.9 7.1-1.2c1-3.1-7.4-3.8-7.4-3.8 1.2-25.2 15.2-36.9 15.2-36.9l-.4-4.8m1.9 8.6c-7.9 18.7-6 69.3-6 69.3s-32.8 4.8-33.8 12.8 18.5 5.3 33.2 2c14.7-3.3 15.3-.3 11.7-20.3-3.7-20 1.5-56 1.5-56s1.2-26.5-6.6-7.8m48.5 7.9s5.2 36 1.5 56-3 17 11.7 20.3c14.7 3.3 34.2 6 33.2-2s-33.8-12.8-33.8-12.8 1.9-50.6-6-69.3c-8-18.8-6.6 7.8-6.6 7.8" fill="#3A305B"/><path d="M167.9 367.3c0 18.2-14.8 33-33 33s-33-14.8-33-33 14.8-33 33-33c18.3.1 33 14.8 33 33" fill="#44386B"/><path d="M164.1 351.9c-8.1 6.9-18.8 11-30.5 11-10.8 0-20.7-3.6-28.6-9.5-2 4.2-3.1 8.9-3.1 13.9 0 13.4 8 25 19.5 30.1-8.4-11.9-6.6-32.5-6.6-32.5 9.2 2.9 16.9 4 23.3 4 16.8 0 24.7-7.8 27.9-12.5-.5-1.5-1.1-3-1.9-4.5" fill="#362B5D"/><path d="M165.5 275.2c15.3 7.7 14 44 14 44 0 24.2-20.5 43.8-45.9 43.8-25.3 0-45.9-19.6-45.9-43.8 0 0-2.5-32 14.3-42.3 16.8-10.2 63.5-1.7 63.5-1.7" fill="#4E427C"/><path d="M87.9 308.2c-.2 2.5-.2 4.8-.2 6.6 0 2.7.1 4.4.1 4.4 0 24.2 20.5 43.8 45.9 43.8 14.4 0 27.3-6.4 35.7-16.3-5.4 2.3-12.3 3.9-21.3 3.9-4.3 0-9-.4-14.1-1.2-27.2-4.4-30.8-24.3-30.1-37.6-.3.2-.7.3-1 .5-1.1.4-2.2.6-3.3.6-4 0-8-2.1-11.7-4.7m66.4-16.3c-10.3 2.5-21.1 3.8-32.3 3.8-5 0-10-.3-14.9-.8.4 1.1 1 2.8 1.3 4.8 0 .1 0 .2.1.3 9.3 1.1 17 1.5 23.5 1.5 9.7 0 16.4-.9 21-2v-.5c0-2.7.7-5.3 1.3-7.1" fill="#3E336C"/><path d="M106.5 293.5s7 14.5-3.7 18.7c-10.7 4.2-26.8-15-26.8-15-.3-21.7 30.5-3.7 30.5-3.7m48.7-4s-7 14.5 3.7 18.7c10.8 4.3 26.8-15 26.8-15 .3-21.7-30.5-3.7-30.5-3.7" fill="#E35454"/><g fill="#DA3D3D"><path d="M179.7 283c-8 3.8-16.5 6.8-25.4 8.9-.6 1.8-1.3 4.4-1.3 7v.2c10.7-2.4 21-7 29.6-14.7-.8-.6-1.8-1.1-2.9-1.4M78.8 288.8c-.8.8-1.5 1.8-2 3.1 6.1 2.1 17.7 5.6 31.7 7.8-.3-1.9-.9-3.6-1.3-4.8-10-1-19.4-3.1-28.4-6.1"/></g><path d="M243.3 189.5c0 58.7-54.3 106.2-121.3 106.2S.7 248.1.7 189.5 55 83.2 122 83.2s121.3 47.6 121.3 106.3" fill="#64549E"/><path d="M58.8 98.8C24 117.5.8 151.1.8 189.5c0 58.7 54.3 106.2 121.3 106.2 36.8 0 69.7-14.3 91.9-37-23.2 11.9-47.2 17.2-69.8 17.2-60.3 0-111.4-37.8-114-90.8-2.3-44.1 14.2-71.2 28.6-86.3" fill="#4F4089"/><path d="M216.5 182.5c0 21.3-15.2 38.5-33.9 38.5s-33.9-17.2-33.9-38.5 15.2-38.5 33.9-38.5 33.9 17.2 33.9 38.5zm-197.5 0c0 21.3 15.2 38.5 33.9 38.5s33.9-17.2 33.9-38.5S71.6 144 52.9 144 19 161.2 19 182.5z" fill="#FFF"/><ellipse fill="#201B33" cx="61.5" cy="186" rx="17.5" ry="18.5"/><ellipse fill="#201B33" cx="174.2" cy="186" rx="17.5" ry="18.5"/><path d="M142.7 218.2c-.7 5.7-4.9 10.6-9.9 13-5 2.6-10.6 3.5-16.1 3.6-2.7.1-5.5 0-8.2-.4-1.4-.2-2.7-.5-4.1-.8l-2-.6-1-.3-1-.4c-2.6-.9-5.1-2.3-7.3-4-2.2-1.7-4.1-3.8-5.5-6.2-.4-.7-.2-1.3.1-1.4.4-.1.8 0 1.2.6 1.5 2.1 3.4 3.8 5.5 5.2 2.1 1.4 4.4 2.5 6.9 3.2l.9.3.9.2 1.9.5c1.3.2 2.5.5 3.8.6 2.6.3 5.1.4 7.7.3 5.2-.1 10.4-.8 14.9-2.9 1.2-.5 2.2-1.2 3.3-1.8l1.5-1.1c.5-.4.9-.9 1.3-1.3s.8-1 1.2-1.4c.4-.5.7-1 1-1.6.6-1.1 1.1-2.3 1.3-3.5.2-.8.6-1.2 1-1.2.4-.1.8.5.7 1.4z" fill="#2F2944"/><path d="M85.2 112s3.2 5.7 10.8 1.2c7.7-4.5 4.7-99-28.5-110.3C29-10.2-5.7 37.2 9.5 49.6c7.9 6.4 17-2.4 26.6-11.1 8.9-8.1 18.3-16.3 27.4-12.2 17.1 7.4 27.1 36.9 21.7 85.7" fill="#7663BA"/><path d="M59 17c-14.3 0-28.5 19.8-38.3 24.3-1.5.7-2.8 1-3.9 1-5.6 0-7.4-7.1-8-12.1C7 34 6 37.8 6 41.1c0 3.5 1.1 6.5 3.6 8.5 1.9 1.5 3.8 2.2 5.9 2.2 6.4 0 13.4-6.6 20.7-13.3 7.3-6.6 14.9-13.3 22.4-13.3 1.7 0 3.4.3 5 1.1 13.9 6.1 23.1 27 23.1 61 0 7.6-.5 15.9-1.4 24.8 0 0 1.2 2.2 4.1 2.8 7.3-38.6.1-72.1-17.3-91.3C67.7 18.8 63.4 17 59 17" fill="#5D4CA1"/><path d="M167.3 112s3.2 5.7 10.8 1.2c7.7-4.5 4.7-99-28.5-110.3-38.5-13.1-73.2 34.3-58 46.7 7.9 6.4 17-2.4 26.6-11.1 8.9-8.1 18.3-16.3 27.4-12.2 17 7.4 27 36.9 21.7 85.7" fill="#7E6AC7"/><path d="M140 17c-14.3 0-28.5 19.8-38.3 24.3-1.5.7-2.8 1-3.9 1-5 0-7-5.6-7.8-10.4-1.3 3.2-2.1 6.4-2.1 9.1 0 3.5 1.1 6.5 3.6 8.5 1.9 1.5 3.8 2.2 5.9 2.2 6.4 0 13.4-6.6 20.7-13.3 7.3-6.6 14.9-13.3 22.4-13.3 1.7 0 3.4.3 5 1.1 13.9 6.1 23.1 27 23.1 61v4.2c-.1 6.4-.6 13.3-1.4 20.6 0 0 1 1.7 3.1 2.5 7.2-38.5.1-71.9-17.4-91-4.2-4.7-8.5-6.5-12.9-6.5" fill="#6351AC"/><text font-family="RobotoMonoForPowerline-Thin, Roboto Mono Thin for Powerline" font-size="90" font-style="condensed" font-weight="300" fill="#434148"><tspan x="0" y="618">postcss-ant</tspan></text></g></svg>

<?xml version="1.0" encoding="UTF-8" standalone="no"?>
<svg width="590px" height="736px" viewBox="0 0 590 736" version="1.1" xmlns="http://www.w3.org/2000/svg" xmlns:xlink="http://www.w3.org/1999/xlink">
    <!-- Generator: Sketch 39.1 (31720) - http://www.bohemiancoding.com/sketch -->
    <title>Artboard</title>
    <desc>Created with Sketch.</desc>
    <defs></defs>
    <g id="Page-1" stroke="none" stroke-width="1" fill="none" fill-rule="evenodd">
        <g id="Artboard">
            <g id="Group-2">
                <g id="logo">
                    <g id="Group">
                        <ellipse id="Oval" fill="#CCCCCC" cx="135" cy="460.7" rx="90.8" ry="12.5"></ellipse>
                        <path d="M81.3,285.7 C81.3,285.7 69.1,340.9 67.6,365.5 C66.1,390.2 65.4,416.2 65.4,420.3 C65.4,424.4 63.7,434.8 71.6,435.6 C74.6,435.9 77,435.7 79.3,435.5 C83.1,435.2 86.7,434.9 92.4,436.7 C97.3,438.3 103.5,437.6 110,436.9 C115.8,436.3 121.9,435.7 127.4,436.7 C139.1,438.9 146.6,439 161.6,437.7 C176.6,436.4 175.9,433.9 195.9,435.1 C215.9,436.3 216.9,434.8 215.7,426.6 C214.5,418.4 197.9,298.4 175.7,280.1 C153.6,261.8 81.3,285.7 81.3,285.7" id="Shape" fill="#E33B3B"></path>
                        <path d="M180,426.3 C175.6,426.5 171,427.8 167.4,429.1 L167.4,437.1 C174.8,436.1 177.7,434.8 186.8,434.8 C189.3,434.8 192.2,434.9 195.8,435.1 C199.6,435.3 202.8,435.4 205.3,435.4 C213.9,435.4 215.9,434 215.9,430.1 C215.9,429.4 215.8,428.7 215.7,427.9 C211.6,428.3 206.8,428.5 202.3,428.5 C195.6,428.5 189.3,428 185.6,426.9 C185.1,426.8 184.6,426.6 184.2,426.5 C184,427.8 183.5,428.8 182.4,429 C182.3,429 182.1,429.1 182,429.1 C181.1,429.2 180.4,428 180,426.3 M112,391 C110.8,401 108.9,422 110.6,437 C114,436.6 117.4,436.3 120.8,436.3 C123.1,436.3 125.3,436.5 127.4,436.8 C134.1,438.1 139.5,438.6 145.7,438.6 C149,438.6 152.6,438.4 156.7,438.1 C158.6,423.9 156.9,403.8 155.7,392.9 C150,397.5 142.8,400.3 134.9,400.3 C126,400.3 117.9,396.8 112,391 M69.2,370.7 C69.2,370.7 68.4,371.2 67.2,371.9 L67.2,372.8 C68.4,371.6 69.2,370.7 69.2,370.7 M68.1,359.2 C68,360.5 67.9,361.7 67.8,362.8 C68.1,362.7 68.3,362.7 68.3,362.7 C68.3,362.7 68.2,361.5 68.1,359.2 M87.8,309.3 C82.3,319 75,337.1 77.3,362.8 L79.1,362.8 C82.7,362.8 90.6,363.2 89.8,367.2 C89.2,370.2 85.4,370.9 82.5,370.9 C80.5,370.9 78.8,370.6 78.8,370.6 C78.8,370.6 83.6,393.1 77.2,393.1 L76.9,393.1 C70.1,392.3 73.8,372.6 73.8,372.6 C73.8,372.6 71.1,382.6 66.6,384.9 C65.8,402.4 65.4,417.4 65.4,420.4 C65.4,421.6 65.3,423.4 65.3,425.4 C65.3,429.9 66.1,435.2 71.6,435.8 C72.8,435.9 73.8,436 74.8,436 C76.4,436 77.8,435.9 79.3,435.8 C80.7,435.7 82.1,435.6 83.6,435.6 C86.1,435.6 88.8,435.9 92.4,437.1 C94.6,437.8 97.1,438.1 99.7,438.1 L100,438.1 C99.9,424 100.3,396.4 104.9,381.3 C104.1,379.5 103.4,377.7 103,375.8 C99.1,380 90.6,391.4 89.6,410.8 C89.6,410.8 98,411.5 97,414.6 C96.5,416 95.1,416.4 93.6,416.4 C91.8,416.4 89.9,415.8 89.9,415.8 C89.9,415.8 90.9,429.6 87.2,429.6 C87.1,429.6 86.9,429.6 86.8,429.5 C82.6,428.5 86.6,416.5 86.6,416.5 C86.6,416.5 83.6,423.7 80.2,423.7 C79.8,423.7 79.4,423.6 79,423.4 C75.2,421.3 83.9,415.1 83.9,415.1 C83.9,415.1 79.7,417 77.3,417 C76.1,417 75.2,416.5 75.6,415 C76.7,410.6 84,410 84,410 C84,410 86.5,376 102,369.7 C102,369 101.9,368.3 101.9,367.7 L101.9,367.7 L101.9,367.7 C101.9,362.7 103,358 105,353.8 C94.5,345.8 87.7,333.4 87.7,319.6 C87.7,319.6 87.6,317.9 87.6,315.2 C87.6,313.3 87.7,311.4 87.8,309.3 M78.3,299.8 C77.8,302.3 77.2,305.2 76.6,308.1 C77.7,305.9 79,303.8 80.4,301.9 L78.3,299.8" id="Shape" fill="#DA2B2B"></path>
                        <path d="M93.5,301 C93.5,301 73.8,322.5 77.2,362.8 C77.2,362.8 90.7,362 89.7,367.2 C88.7,372.3 78.7,370.6 78.7,370.6 C78.7,370.6 83.6,393.9 76.8,393.1 C70,392.3 73.7,372.6 73.7,372.6 C73.7,372.6 69.7,387.6 63.2,385.1 C56.7,382.6 69.2,370.8 69.2,370.8 C69.2,370.8 55.2,379.8 56,372.5 C56.8,365.3 68.2,362.8 68.2,362.8 C68.2,362.8 64.5,302.8 91.7,293.3 L93.5,301 M173,301 C173,301 192.8,322.5 189.3,362.8 C189.3,362.8 175.8,362 176.8,367.2 C177.8,372.3 187.8,370.6 187.8,370.6 C187.8,370.6 182.9,393.9 189.7,393.1 C196.5,392.3 192.8,372.6 192.8,372.6 C192.8,372.6 196.8,387.6 203.3,385.1 C209.8,382.6 197.3,370.8 197.3,370.8 C197.3,370.8 211.3,379.8 210.6,372.5 C209.8,365.3 198.3,362.8 198.3,362.8 C198.3,362.8 202.1,302.8 174.8,293.3 L173,301 M164.6,373.6 C164.6,373.6 178.6,385.3 179.8,410.5 C179.8,410.5 171.4,411.2 172.4,414.3 C173.4,417.4 179.5,415.5 179.5,415.5 C179.5,415.5 178.4,430.3 182.6,429.3 C186.8,428.3 182.8,416.3 182.8,416.3 C182.8,416.3 186.5,425.3 190.3,423.2 C194.1,421.1 185.4,414.9 185.4,414.9 C185.4,414.9 194.8,419.3 193.8,414.9 C192.7,410.5 185.4,409.9 185.4,409.9 C185.4,409.9 182.7,372.4 165,368.8 L164.6,373.6 M104.4,368.7 C86.7,372.3 84,409.8 84,409.8 C84,409.8 76.7,410.4 75.6,414.8 C74.5,419.2 84,414.8 84,414.8 C84,414.8 75.3,421 79.1,423.1 C82.9,425.2 86.6,416.2 86.6,416.2 C86.6,416.2 82.6,428.1 86.8,429.2 C91,430.3 89.9,415.4 89.9,415.4 C89.9,415.4 95.9,417.3 97,414.2 C98,411.1 89.6,410.4 89.6,410.4 C90.8,385.2 104.8,373.5 104.8,373.5 L104.4,368.7 M106.3,377.3 C98.4,396 100.3,446.6 100.3,446.6 C100.3,446.6 67.5,451.4 66.5,459.4 C65.5,467.4 85,464.7 99.7,461.4 C114.4,458.1 115,461.1 111.4,441.1 C107.7,421.1 112.9,385.1 112.9,385.1 C112.9,385.1 114.1,358.6 106.3,377.3 M154.8,385.2 C154.8,385.2 160,421.2 156.3,441.2 C152.6,461.2 153.3,458.2 168,461.5 C182.7,464.8 202.2,467.5 201.2,459.5 C200.2,451.5 167.4,446.7 167.4,446.7 C167.4,446.7 169.3,396.1 161.4,377.4 C153.4,358.6 154.8,385.2 154.8,385.2" id="Shape" fill="#3A305B"></path>
                        <path d="M167.9,367.3 C167.9,385.5 153.1,400.3 134.9,400.3 C116.7,400.3 101.9,385.5 101.9,367.3 C101.9,349.1 116.7,334.3 134.9,334.3 C153.2,334.4 167.9,349.1 167.9,367.3" id="Shape" fill="#44386B"></path>
                        <path d="M164.1,351.9 C156,358.8 145.3,362.9 133.6,362.9 C122.8,362.9 112.9,359.3 105,353.4 C103,357.6 101.9,362.3 101.9,367.3 C101.9,380.7 109.9,392.3 121.4,397.4 C113,385.5 114.8,364.9 114.8,364.9 C124,367.8 131.7,368.9 138.1,368.9 C154.9,368.9 162.8,361.1 166,356.4 C165.5,354.9 164.9,353.4 164.1,351.9" id="Shape" fill="#362B5D"></path>
                        <path d="M165.5,275.2 C180.8,282.9 179.5,319.2 179.5,319.2 C179.5,343.4 159,363 133.6,363 C108.3,363 87.7,343.4 87.7,319.2 C87.7,319.2 85.2,287.2 102,276.9 C118.8,266.7 165.5,275.2 165.5,275.2" id="Shape" fill="#4E427C"></path>
                        <path d="M87.9,308.2 C87.7,310.7 87.7,313 87.7,314.8 C87.7,317.5 87.8,319.2 87.8,319.2 C87.8,343.4 108.3,363 133.7,363 C148.1,363 161,356.6 169.4,346.7 C164,349 157.1,350.6 148.1,350.6 C143.8,350.6 139.1,350.2 134,349.4 C106.8,345 103.2,325.1 103.9,311.8 C103.6,312 103.2,312.1 102.9,312.3 C101.8,312.7 100.7,312.9 99.6,312.9 C95.6,312.9 91.6,310.8 87.9,308.2 M154.3,291.9 C144,294.4 133.2,295.7 122,295.7 C117,295.7 112,295.4 107.1,294.9 C107.5,296 108.1,297.7 108.4,299.7 L108.4,299.7 C108.4,299.8 108.4,299.9 108.5,300 C117.8,301.1 125.5,301.5 132,301.5 C141.7,301.5 148.4,300.6 153,299.5 L153,299 C153,296.3 153.7,293.7 154.3,291.9" id="Shape" fill="#3E336C"></path>
                        <path d="M106.5,293.5 C106.5,293.5 113.5,308 102.8,312.2 C92.1,316.4 76,297.2 76,297.2 C75.7,275.5 106.5,293.5 106.5,293.5 M155.2,289.5 C155.2,289.5 148.2,304 158.9,308.2 C169.7,312.5 185.7,293.2 185.7,293.2 C186,271.5 155.2,289.5 155.2,289.5" id="Shape" fill="#E35454"></path>
                        <g transform="translate(76.000000, 283.000000)" id="Shape" fill="#DA3D3D">
                            <path d="M103.7,0 C95.7,3.8 87.2,6.8 78.3,8.9 C77.7,10.7 77,13.3 77,15.9 L77,16.1 C87.7,13.7 98,9.1 106.6,1.4 L106.6,1.4 C105.8,0.8 104.8,0.3 103.7,0"></path>
                            <path d="M2.8,5.8 C2,6.6 1.3,7.6 0.8,8.9 C6.9,11 18.5,14.5 32.5,16.7 C32.2,14.8 31.6,13.1 31.2,11.9 C21.2,10.9 11.8,8.8 2.8,5.8"></path>
                        </g>
                        <path d="M243.3,189.5 C243.3,248.2 189,295.7 122,295.7 C55,295.7 0.7,248.1 0.7,189.5 C0.7,130.9 55,83.2 122,83.2 C189,83.2 243.3,130.8 243.3,189.5" id="Shape" fill="#64549E"></path>
                        <path d="M58.8,98.8 C24,117.5 0.8,151.1 0.8,189.5 C0.8,248.2 55.1,295.7 122.1,295.7 C158.9,295.7 191.8,281.4 214,258.7 C190.8,270.6 166.8,275.9 144.2,275.9 C83.9,275.9 32.8,238.1 30.2,185.1 C27.9,141 44.4,113.9 58.8,98.8" id="Shape" fill="#4F4089"></path>
                        <path d="M216.5,182.5 C216.5,203.8 201.3,221 182.6,221 C163.9,221 148.7,203.8 148.7,182.5 C148.7,161.2 163.9,144 182.6,144 C201.3,144 216.5,161.2 216.5,182.5 L216.5,182.5 Z M19,182.5 C19,203.8 34.2,221 52.9,221 C71.6,221 86.8,203.8 86.8,182.5 C86.8,161.2 71.6,144 52.9,144 C34.2,144 19,161.2 19,182.5 L19,182.5 Z" id="Shape" fill="#FFFFFF"></path>
                        <ellipse id="Oval" fill="#201B33" cx="61.5" cy="186" rx="17.5" ry="18.5"></ellipse>
                        <ellipse id="Oval" fill="#201B33" cx="174.2" cy="186" rx="17.5" ry="18.5"></ellipse>
                        <path d="M142.7,218.2 C142,223.9 137.8,228.8 132.8,231.2 C127.8,233.8 122.2,234.7 116.7,234.8 C114,234.9 111.2,234.8 108.5,234.4 C107.1,234.2 105.8,233.9 104.4,233.6 L102.4,233 L101.4,232.7 L100.4,232.3 C97.8,231.4 95.3,230 93.1,228.3 C90.9,226.6 89,224.5 87.6,222.1 C87.2,221.4 87.4,220.8 87.7,220.7 C88.1,220.6 88.5,220.7 88.9,221.3 C90.4,223.4 92.3,225.1 94.4,226.5 C96.5,227.9 98.8,229 101.3,229.7 L102.2,230 L103.1,230.2 L105,230.7 C106.3,230.9 107.5,231.2 108.8,231.3 C111.4,231.6 113.9,231.7 116.5,231.6 C121.7,231.5 126.9,230.8 131.4,228.7 C132.6,228.2 133.6,227.5 134.7,226.9 L136.2,225.8 C136.7,225.4 137.1,224.9 137.5,224.5 C137.9,224.1 138.3,223.5 138.7,223.1 C139.1,222.6 139.4,222.1 139.7,221.5 C140.3,220.4 140.8,219.2 141,218 C141.2,217.2 141.6,216.8 142,216.8 C142.4,216.7 142.8,217.3 142.7,218.2 L142.7,218.2 Z" id="Shape" fill="#2F2944"></path>
                        <path d="M85.2,112 C85.2,112 88.4,117.7 96,113.2 C103.7,108.7 100.7,14.2 67.5,2.9 C29,-10.2 -5.7,37.2 9.5,49.6 C17.4,56 26.5,47.2 36.1,38.5 C45,30.4 54.4,22.2 63.5,26.3 C80.6,33.7 90.6,63.2 85.2,112" id="Shape" fill="#7663BA"></path>
                        <path d="M59,17 C44.7,17 30.5,36.8 20.7,41.3 C19.2,42 17.9,42.3 16.8,42.3 C11.2,42.3 9.4,35.2 8.8,30.2 C7,34 6,37.8 6,41.1 C6,44.6 7.1,47.6 9.6,49.6 C11.5,51.1 13.4,51.8 15.5,51.8 C21.9,51.8 28.9,45.2 36.2,38.5 C43.5,31.9 51.1,25.2 58.6,25.2 C60.3,25.2 62,25.5 63.6,26.3 C77.5,32.4 86.7,53.3 86.7,87.3 C86.7,94.9 86.2,103.2 85.3,112.1 C85.3,112.1 86.5,114.3 89.4,114.9 C96.7,76.3 89.5,42.8 72.1,23.6 C67.7,18.8 63.4,17 59,17" id="Shape" fill="#5D4CA1"></path>
                        <path d="M167.3,112 C167.3,112 170.5,117.7 178.1,113.2 C185.8,108.7 182.8,14.2 149.6,2.9 C111.1,-10.2 76.4,37.2 91.6,49.6 C99.5,56 108.6,47.2 118.2,38.5 C127.1,30.4 136.5,22.2 145.6,26.3 C162.6,33.7 172.6,63.2 167.3,112" id="Shape" fill="#7E6AC7"></path>
                        <path d="M140,17 C125.7,17 111.5,36.8 101.7,41.3 C100.2,42 98.9,42.3 97.8,42.3 C92.8,42.3 90.8,36.7 90,31.9 C88.7,35.1 87.9,38.3 87.9,41 C87.9,44.5 89,47.5 91.5,49.5 C93.4,51 95.3,51.7 97.4,51.7 C103.8,51.7 110.8,45.1 118.1,38.4 C125.4,31.8 133,25.1 140.5,25.1 C142.2,25.1 143.9,25.4 145.5,26.2 C159.4,32.3 168.6,53.2 168.6,87.2 L168.6,91.4 C168.5,97.8 168,104.7 167.2,112 C167.2,112 168.2,113.7 170.3,114.5 C177.5,76 170.4,42.6 152.9,23.5 C148.7,18.8 144.4,17 140,17" id="Shape" fill="#6351AC"></path>
                    </g>
                </g>
                <text id="postcss-ant" font-family="RobotoMonoForPowerline-Thin, Roboto Mono Thin for Powerline" font-size="90" font-style="condensed" font-weight="300" fill="#434148">
                    <tspan x="0" y="618">postcss-ant</tspan>
                </text>
            </g>
        </g>
    </g>
</svg>
